X:1
T:Come Upstairs with Me
T:Tar Suas Staighre Liom
R:Slip jig
C:Trad.
D:Nuala Kennedy, "The New Shoes", 2007
Q:1/4=120
M:9/8
L:1/8
K:G
|: G2G BAG Bcd | e2e def gdB | G2G BAG Bcd | ecA ABG FED :|
|: g2g edc Bcd | g2g efg a3 | g2g edc Bcd |1 ecA ABG FED :|2 efg def gdB |
